packages/ui-icons/svg/Solid/discussion-reply-2.svg

<svg viewBox="0 0 1920 1920" version="1.1" xmlns="http://www.w3.org/2000/svg">
    <path d="M874.738114,645.125705 L462.691378,645.125705 L810.918614,296.898469 L640.008058,126 L0,765.995971 L640.008058,1406.00403 L810.918614,1235.09347 L462.691378,886.866237 L874.738114,886.866237 C1317.72764,886.866237 1678.16277,1247.30137 1678.16277,1690.29089 L1678.16277,1793.39323 L1919.9033,1793.39323 L1919.9033,1690.29089 C1919.9033,1113.98147 1451.16841,645.125705 874.738114,645.125705" stroke="none" stroke-width="1" fill-rule="evenodd"/>
</svg>

<svg viewBox="0 0 1920 1920" version="1.1" xmlns="http://www.w3.org/2000/svg">
    <path d="M874.738 645.126H462.691L810.92 296.898 640.009 126 0 765.996l640.008 640.008 170.91-170.91-348.227-348.228h412.047c442.99 0 803.425 360.435 803.425 803.425v103.102h241.74v-103.102c0-576.31-468.735-1045.165-1045.165-1045.165" stroke="none" stroke-width="1" fill-rule="evenodd"/>
</svg>
